X:1
T:The Battler's Farewell to Bungendore
N:title supplied by Jacko Kevans, from NSW
N:a version of Coppers and Brass
L:1/8
M:6/8
K:G
A|"G"BAB GAB|"C"cBc A2c|"G"BAB GAB|"D"cAA A2c|
"G"BAB GAB|"C"cBc ABc|"D"ded cAF|"G"G3 G2:|
e|"D"f3 f3|fed cAF|"G"G2g gfg|gfg ged|
"D"f3 f3|fed cAF|"G"GAB "D"cAF|"G"G3 G2:|
